!!!COM: Corelli, Arcangelo
!!!OTL: Sonate a tre [in d]
!!!XEN: Trio Sonata Opus 1, No. 11
!!!OPS: Opus 1
!!!ONM: No. 11
!!!OMV: Movement 2.
!!!YEC: Copyright 1994, Center for Computer Assisted Research in the Humanities
!!!YEM: Rights to all derivative electronic formats reserved.
!!!YEM: Refer to licensing agreement for further details.
!! For the following instrumentation: Violino I & II, Violone/Archlute,
!!    and Organo.
!! Allegro.
**kern	**kern	**kern	**kern
*ICklav	*ICstr	*ICstr	*ICstr
*Iorgan	*Icello	*Ivioln	*Ivioln
*	*Iarchl	*	*
!Organo	!Violone	!Violin 2	!Violin 1
!	! or	!	!
!	!Archlute	!	!
*>[A,A]	*>[A,A]	*>[A,A]	*>[A,A]
*>A	*>A	*>A	*>A
*clefG2	*clefF4	*clefG2	*clefG2
*k[b-]	*k[b-]	*k[b-]	*k[b-]
*d:	*d:	*d:	*d:
*M4/4	*M4/4	*M4/4	*M4/4
*MM66	*MM66	*MM66	*MM66
=1-	=1-	=1-	=1-
2aa\	1r	1r	2aa\
4gg#\	.	.	4gg#\
4ggn\	.	.	4ggn\
=2	=2	=2	=2
4ff#\	1r	1r	4ff#\
4ffn\	.	.	4ffn\
2ee\	.	.	2ee\
=3	=3	=3	=3
2dd\	1r	2dd\	16dd\LL
.	.	.	16ee\
.	.	.	16ff\
.	.	.	16ee\JJ
.	.	.	16dd\LL
.	.	.	16ff\
.	.	.	16ee\
.	.	.	16dd\JJ
4cc#\	.	4cc#\	8ee\L
.	.	.	8a\J
4ccn\	.	4ccn\	[4aa\
=4	=4	=4	=4
4b\	1r	4b\	4aa\]
4b-\	.	4b-\	2gg\
4a/	.	4a/	.
[4dd\	.	[4dd\	4ff\
=5	=5	=5	=5
4dd\]	1r	4dd\]	4ee\
4cc\	.	4cc\	2aa\
2b\	.	2b\	.
.	.	.	4gg#\
*clefF4	*	*	*
=6	=6	=6	=6
2A\	2A\	16a\LL	8aa\L
.	.	16b\	.
.	.	16cc\	8ee\
.	.	16b\JJ	.
.	.	16a\LL	8cc\
.	.	16cc\	.
.	.	16b\	8dd\J
.	.	16a\JJ	.
4G#\	4G#\	8b/L	4ee\
.	.	8e/J	.
4Gn\	4Gn\	[4ee\	4b\
=7	=7	=7	=7
4F#\	4F#\	4ee\]	2a/
4Fn\	4Fn\	2dd\	.
2E\	2E\	.	2g/
.	.	4cc#\	.
=8	=8	=8	=8
2D\	16D\LL	4dd\	4f/
.	16E\	.	.
.	16F\	.	.
.	16E\JJ	.	.
.	16D\LL	4r	4ddd\
.	16F\	.	.
.	16E\	.	.
.	16D\JJ	.	.
4AA/	8E/L	4r	4ccc#\
.	8AA/J	.	.
4A\	4A\	[4aa\	4cccn\
=9	=9	=9	=9
2E\	2E\	4aa\]	4bb\
.	.	2gg\	4bb-\
4.F\	4.F\	.	4aa\
.	.	4ff\	[4ddd\
8G\	8G\	.	.
=10	=10	=10	=10
4A\	4A\	4ee\	4ddd\]
4AA/	4AA/	2aa\	4ccc\
2E\	2E\	.	2bb\
.	.	4gg#\	.
=11	=11	=11	=11
4.AA/	4.AA/	4aa\	8aa\L
.	.	.	8ee\J
.	.	8r	[4aa\
8AA/	8AA/	8cc\	.
4.BB/	4.BB/	4.dd\	8aa\L]
.	.	.	(16gg\L
.	.	.	16ff\JJ)
.	.	.	[4gg\
8C#/	8C#/	8ee\	.
=12	=12	=12	=12
4.D\	4.D\	4.a/	8gg\L]
.	.	.	16ff\L
.	.	.	16ee\JJ
.	.	.	[4ff\
8F\	8F\	8a/	.
4.G\	4.G\	4.b-\	8ff\L]
.	.	.	(16ee-\L
.	.	.	16dd\JJ)
.	.	.	[4ee-\
8A\	8A\	8cc\	.
=13	=13	=13	=13
4.B-\	4.B-\	4.f/	8ee-\L]
.	.	.	(16dd\L
.	.	.	16cc\JJ)
.	.	.	[4dd\
8F\	8F\	8a/	.
4G\	4G\	8b\L	8dd\L]
.	.	8dd\J	(16gg\L
.	.	.	16ff\JJ)
4A\	4A\	8.dd\L	8.een\L
.	.	16cc#\Jk	16ee\Jk
=14	=14	=14	=14
2D\	2D\	16dd\LL	4dd\
.	.	16ee\	.
.	.	16ff\	.
.	.	16ee\JJ	.
.	.	16dd\LL	4dd\
.	.	16ff\	.
.	.	16ee\	.
.	.	16dd\JJ	.
2AA/	2AA/	8ee\L	4cc#\
.	.	8a\J	.
.	.	[4aa\	4ccn\
=15	=15	=15	=15
2E\	2E\	4aa\]	2b\
.	.	4gg#\	.
2A\	2A\	4aa\	16a\LL
.	.	.	16b\
.	.	.	16cc\
.	.	.	16b\JJ
.	.	4aa\	16a\LL
.	.	.	16cc\
.	.	.	16b\
.	.	.	16a\JJ
=16	=16	=16	=16
4E\	4E\	4gg#\	8b/L
.	.	.	8e/J
4C#/	4C#/	4ggn\	[4ee\
2D\	2D\	4ff#\	8ee\L]
.	.	.	8a\J
.	.	4ffn\	[4dd\
=17	=17	=17	=17
2A\	2A\	2ee\	4dd\]
.	.	.	4cc#\
2D\	2D\	4dd\	16dd\LL
.	.	.	16ee\
.	.	.	16ff\
.	.	.	16ee\JJ
.	.	4r	16dd\LL
.	.	.	16ff\
.	.	.	16ee\
.	.	.	16dd\JJ
=18	=18	=18	=18
2AA/	2AA/	16cc#\LL	16ee\LL
.	.	16dd\	16ff\
.	.	16ee\	16gg\
.	.	16dd\JJ	16ff\JJ
.	.	16cc#\LL	16ee\LL
.	.	16ee\	16gg\
.	.	16dd\	16ff\
.	.	16cc#\JJ	16ee\JJ
2D\	2D\	16dd\LL	16ff\LL
.	.	16ee\	16gg\
.	.	16ff\	16aa\
.	.	16ee\JJ	16gg\JJ
.	.	16dd\LL	16ff\LL
.	.	16ff\	16aa\
.	.	16ee\	16gg\
.	.	16dd\JJ	16ff\JJ
=19	=19	=19	=19
2C/	2C/	16ee\LL	16gg\LL
.	.	16ff\	16aa\
.	.	16gg\	16bb-\
.	.	16ff\JJ	16aa\JJ
.	.	16ee\LL	16gg\LL
.	.	16gg\	16bb-\
.	.	16ff\	16aa\
.	.	16ee\JJ	16gg\JJ
4.F\	4.F\	16ff\LL	8aa\L
.	.	16cc\	.
.	.	16b-\	8ff\J
.	.	16cc\JJ	.
.	.	16a\LL	[4ccc\
.	.	16b-\	.
8A\	8A\	16cc\	.
.	.	16a\JJ	.
=20	=20	=20	=20
4.B-\	4.B-\	16dd\LL	4ccc\]
.	.	16ee\	.
.	.	16ff\	.
.	.	16ee\JJ	.
.	.	16dd\LL	2bb-\
.	.	16gg\	.
8B-\	8B-\	16ff\	.
.	.	16gg\JJ	.
4c\	4c\	8ee\L	.
.	.	8cc\J	.
4d\	4d\	[4ff\	4aa\
=21	=21	=21	=21
4B-\	4B-\	4ff\]	2gg\
4c\	4c\	4ee\	.
2F\	2F\	16ff\LL	4ff\
.	.	16gg\	.
.	.	16aa\	.
.	.	16gg\JJ	.
.	.	16ff\LL	4r
.	.	16aa\	.
.	.	16gg\	.
.	.	16ff\JJ	.
=22	=22	=22	=22
2C/	2C/	4ee\	16cc\LL
.	.	.	16dd\
.	.	.	16ee\
.	.	.	16dd\JJ
.	.	4r	16cc\LL
.	.	.	16ee\
.	.	.	16dd\
.	.	.	16cc\JJ
2GG/	2GG/	16gg\LL	4b-\
.	.	16aa\	.
.	.	16bb-\	.
.	.	16aa\JJ	.
.	.	16gg\LL	4r
.	.	16bb-\	.
.	.	16aa\	.
.	.	16gg\JJ	.
=23	=23	=23	=23
2D\	2D\	16ff\LL	16dd\LL
.	.	16gg\	16ee\
.	.	16aa\	16ff\
.	.	16gg\JJ	16ee\JJ
.	.	16ff\LL	16dd\LL
.	.	16aa\	16ff\
.	.	16gg\	16ee\
.	.	16ff\JJ	16dd\JJ
8A\L	8A\L	4ee\	16cc#\LL
.	.	.	16a\
8G\	8G\	.	16b\
.	.	.	16cc#\JJ
8F\	8F\	[4dd\	16dd\LL
.	.	.	16ee\
8E\J	8E\J	.	16ff\
.	.	.	16gg\JJ
=24	=24	=24	=24
8F\L	8F\L	4.dd\]	8aa\L
8G\	8G\	.	(16gg\L
.	.	.	16ff\JJ)
8A\	8A\	.	8.ee\L
8AA\J	8AA\J	8cc#\	.
.	.	.	16ee\Jk
4DD/	4DD/	4.dd\	8dd\L
.	.	.	8a\J
4D\	4D\	.	[4b-\
.	.	8f/	.
=25	=25	=25	=25
4C#/	4C#/	4.e/	8b-/L]
.	.	.	(16a/L
.	.	.	16g/JJ)
4Cn/	4Cn/	.	[4a/
.	.	(16f/LL	.
.	.	16e/JJ)	.
4BB/	4BB/	4.d/	8a/L]
.	.	.	(16g/L
.	.	.	16f/JJ)
4BB-/	4BB-/	.	[4g/
.	.	(16e/LL	.
.	.	16d/JJ)	.
=26	=26	=26	=26
1AA/	1AA/	8c#/L	8g/L]
.	.	8A/J	(16a/L
.	.	.	16g/JJ)
.	.	2d/	8f/L
.	.	.	(16g/L
.	.	.	16f/JJ)
.	.	.	16e/LL
.	.	.	16a/
.	.	.	16g/
.	.	.	16f/JJ
.	.	4c#/	8.e/L
.	.	.	16e/Jk
=27	=27	=27	=27
4D\	4D\	4d/	4d/
*clefG2	*	*	*
4dd\	4r	4r	4dd\
4cc#\	2r	4r	4cc#\
4ccn\	.	4aa\	4ccn\
=28	=28	=28	=28
4b\	1r	4gg#\	4b\
4b-\	.	4ggn\	4b-\
4a/	.	4ff#\	4a/
[4dd\	.	4ffn\	[4dd\
=29	=29	=29	=29
4dd\]	1r	4ee\	4dd\]
4cc\	.	2aa\	4cc\
2b\	.	.	2b\
.	.	4gg#\	.
*clefF4	*	*	*
=30	=30	=30	=30
4AA/	4AA/	8aa\L	16a\LL
.	.	.	16b\
.	.	8a\	16cc\
.	.	.	16b\JJ
4A\	4A\	8cc\	16a\LL
.	.	.	16cc\
.	.	8dd\J	16b\
.	.	.	16a\JJ
4G#\	4G#\	4.ee\	8b\L
.	.	.	(16cc\L
.	.	.	16dd\JJ)
4Gn\	4Gn\	.	8ee\L
.	.	8b\	8ee\J
=31	=31	=31	=31
4F#\	4F#\	4.a/	8ee\L
.	.	.	8a\J
4Fn\	4Fn\	.	2dd\
.	.	(16b-/LL	.
.	.	16a/JJ)	.
2E\	2E\	4.g/	.
.	.	.	4cc#\
.	.	(16a/LL	.
.	.	16g/JJ)	.
=32	=32	=32	=32
2D\	2D\	4f/	16dd\LL
.	.	.	16ee\
.	.	.	16ff\
.	.	.	16ee\JJ
.	.	4r	16dd\LL
.	.	.	16ff\
.	.	.	16ee\
.	.	.	16dd\JJ
2AA/	2AA/	16a\LL	8ee\L
.	.	16b\	.
.	.	16cc\	8a\J
.	.	16b\JJ	.
.	.	16a\LL	4aa\
.	.	16cc\	.
.	.	16b\	.
.	.	16a\JJ	.
=33	=33	=33	=33
4E\	4E\	8b/L	4gg#\
.	.	8e/J	.
4C#/	4C#/	[4ee\	4ggn\
2D\	2D\	8ee\L]	4ff#\
.	.	8a\J	.
.	.	[4dd\	4ffn\
=34	=34	=34	=34
2AA/	2AA/	4dd\]	2ee\
.	.	4cc#\	.
2DD/	2DD/	2dd\	2dd\
==	==	==	==
*-	*-	*-	*-
!!!CDT: 1653/2/17/-1713/1/8
!!!OCY: Italia
!!!ODE: Queen Christina Alexandra of Sweden
!!!ODT: 1681//
!!!OPC: Roma; Rome
!!!AGN: trio sonata
!!!AST: baroque, chamber
!!!AMT: simple quadruple
!!!YOR1: J. Joachim & F. Chrysander (eds.) Les Oeuvre de Arcangelo Corelli
!!!YOR2: London: Augener & Co. 1871
!!!YOY: 1871
!!!AIN: archl cello organ violn
!!!EEV: 1.1
!!!RDT: 1993 September 16
!!!YER: 1994 December 14
!!!EMD: 1996 July 9
!!!YEN: United States of America
!!!EFL: 2/4
!!!ENC: Frances Bennion & Steven Rasmussen
!!!EED: W.B. Hewlett
!!!VTS: 1822248626
